!!!OTL: Der Spielmannssohn.
!!!OTL-incipit: Als ich einmal klein's Bueweli war,
!!!ARE: Europa, Mitteleuropa, Deutschland / France, Lothringen,
!!    Kr. Saargemuend, Hambach
!!!YOR: 3, S. 167
!!    1927 aufgezeichnet
!!!SCT: Q0062A
!!!YEM: Copyright 1995, estate of Helmut Schaffrath.
**kern	**text
*ICvox	*
*M6/4	*
*k[b-]	*
*F:	*
!LO:TX:a:t=Ziemlich lebhaft.	!
{4c	1._Als
=1	=1
(4.f	ich
8e)	.
4f	einmal
2g	.
4cc	klein's
=2	=2
4.a	Bü-
8g	-we-
4a	-li
2f}	war,
{4f	klein's
=3	=3
4.g	Bü-
8a	-we-
4b-	-li
(4.cc	in
8b-)	.
4a	der
=4	=4
(4.f	Wie-
8g)	.
4a	.
2g}	-ge,
{4g	da
=5	=5
4.cc	hat
8dd	mir
4cc	mein
8ccL	Vater
8b-J	.
4a	.
(4g	eine
8aq	.
=6	=6
4.f)	Gey-
8c	-je
8fL	gekauft
8aJ	.
(4.g	.
8a)}	.
{4f;	und
=7	=7
(4.g	hat
8a)	.
4b-	mich
(4.cc	ler-
8b-)	.
4a	-ne
=8	=8
(2g	gey-
4cc)	.
2f}	-jen.
==	==
!!!AGN: Ballade, Verfuehrung, Standesunterschied, Strafe, Gnade
!! Verzierung (Nachschlag) in der dritten Zeile.
!!!ONB: ESAC (Essen Associative Code) Database: BALLADE
!!!AMT: compound duple
!!!AIN: vox
!!!EED: Helmut Schaffrath
!!!EEV: 1.0
!!@@COMMENT:"a: A 158830. Réchicourt, 1987.
!!b: Pinck, Weiſen 2, 95 Nr. 30 (Text nach der Urniederſchrift A 158833). Aus Hambach Kr. Saargemünd*), 1927"
!!@@END:
!!!source: Deutsche Volkslieder mit ihren Melodien. Herausgegeben vom Deutschen Volksliedarchiv. Dritter Band Balladen. Berlin 1954.
!!!page: 167
!!!ENC: Anna Maria Matuszewska
!!!EEV: 2025/02/21
*-	*-
